symbols/web/camera_roll/materialsymbolssharp/camera_roll_grad200_24px.svg

<svg xmlns="http://www.w3.org/2000/svg" height="24" width="24"><path d="M22.8 20.8h-8.225v2.05H1.2V2.25h3.05V.2h7.35v2.05h2.975V4.3H22.8Zm-2.65-2.65V6.95H12V4.9H3.85v15.3H12v-2.05ZM9 17.15h2.3v-2.3H9Zm0-6.9h2.3v-2.3H9Zm3.95 6.9h2.3v-2.3h-2.3Zm0-6.9h2.3v-2.3h-2.3Zm3.9 6.9h2.3v-2.3h-2.3Zm0-6.9h2.3v-2.3h-2.3Zm-13-5.35v15.3Z"/></svg>

<svg xmlns="http://www.w3.org/2000/svg" height="24" width="24"><path d="M22.8 20.8H14.575V22.85H1.2V2.25H4.25V0.2H11.6V2.25H14.575V4.3H22.8ZM20.15 18.15V6.95H12V4.9H3.85V20.2H12V18.15ZM9 17.15H11.3V14.85H9ZM9 10.25H11.3V7.95H9ZM12.95 17.15H15.25V14.85H12.95ZM12.95 10.25H15.25V7.95H12.95ZM16.85 17.15H19.15V14.85H16.85ZM16.85 10.25H19.15V7.95H16.85ZM3.85 4.9V6.95V18.15V20.2Z"/></svg>
